X: 28399
T: Mulberry Garden, The
R: jig
M: 6/8
K: Dminor
|:A|d2e fcA|GAFc2A|d2e fd2|a3-a2:|a||
bag a2e|fd2g2a|efg fed|^c3-c2B|
AG2F2E|Dd2 ^c2d|eAf e2d|d3-d2||

